release/img/icons/repay.svg

<svg width="11" height="18" fill="none" xmlns="http://www.w3.org/2000/svg"><path d="M5.48 7.9c-2.27-.59-3-1.2-3-2.15 0-1.09 1.01-1.85 2.7-1.85 1.78 0 2.44.85 2.5 2.1h2.21c-.07-1.72-1.12-3.3-3.21-3.81V0h-3v2.16C1.74 2.58.18 3.84.18 5.77c0 2.31 1.91 3.46 4.7 4.13 2.5.6 3 1.48 3 2.41 0 .69-.49 1.79-2.7 1.79-2.06 0-2.87-.92-2.98-2.1H0c.12 2.19 1.76 3.42 3.68 3.83V18h3v-2.15c1.95-.37 3.5-1.5 3.5-3.55 0-2.84-2.43-3.81-4.7-4.4z" fill="#FF8B37"/></svg>

<svg width="11" height="18" viewBox="0 0 11 18" fill="none" xmlns="http://www.w3.org/2000/svg">
<path d="M5.48 7.9C3.21 7.31 2.48 6.7 2.48 5.75C2.48 4.66 3.49 3.9 5.18 3.9C6.96 3.9 7.62 4.75 7.68 6H9.89C9.82 4.28 8.77 2.7 6.68 2.19V0H3.68V2.16C1.74 2.58 0.18 3.84 0.18 5.77C0.18 8.08 2.09 9.23 4.88 9.9C7.38 10.5 7.88 11.38 7.88 12.31C7.88 13 7.39 14.1 5.18 14.1C3.12 14.1 2.31 13.18 2.2 12H0C0.12 14.19 1.76 15.42 3.68 15.83V18H6.68V15.85C8.63 15.48 10.18 14.35 10.18 12.3C10.18 9.46 7.75 8.49 5.48 7.9Z" fill="#FF8B37"/>
</svg>
